Suru++-Ubuntu/apps/symbolic/firestarter-symbolic.svg

<svg width="16" height="16" version="1.1" xmlns="http://www.w3.org/2000/svg">
 <path d="m2.2647059 12.735294v1.764706h2.6470588v-1.764706z" style="fill:#808080"/>
 <path d="m5.7941176 12.735294v1.764706h2.6470589v-1.764706z" style="fill:#808080"/>
 <path d="m9.3235294 12.735294v1.764706h2.6470586v-1.764706z" style="fill:#808080"/>
 <path d="m12.852941 12.735294v1.764706h2.647059v-1.764706z" style="fill:#808080"/>
 <path d="m0.5 10.088235v1.764706h2.6470588v-1.764706z" style="fill:#808080"/>
 <path d="m4.0294118 10.088235v1.764706h2.6470588v-1.764706z" style="fill:#808080"/>
 <path d="m7.5588235 10.088235v1.764706h2.6470585v-1.764706z" style="fill:#808080"/>
 <path d="m11.088235 10.088235v1.764706h2.647059v-1.764706z" style="fill:#808080"/>
 <path d="m2.2647059 7.4411767v1.7647059h2.6470588v-1.7647059z" style="fill:#808080"/>
 <path d="m5.7941176 7.4411767v1.7647059h2.6470589v-1.7647059z" style="fill:#808080"/>
 <path d="m9.3235294 7.4411767v1.7647059h2.6470586v-1.7647059z" style="fill:#808080"/>
 <path d="m12.852941 7.4411767v1.7647059h2.647059v-1.7647059z" style="fill:#808080"/>
 <path d="m0.5 4.7941178v1.7647059h2.6470588v-1.7647059z" style="fill:#808080"/>
 <path d="m4.0294118 4.7941178v1.7647059h2.6470588v-1.7647059z" style="fill:#808080"/>
 <path d="m7.5588235 4.7941178v1.7647059h2.6470585v-1.7647059z" style="fill:#808080"/>
 <path d="m11.088235 4.7941178v1.7647059h2.647059v-1.7647059z" style="fill:#808080"/>
 <path d="m2.2647059 2.147059v1.7647059h2.6470588v-1.7647059z" style="fill:#808080"/>
 <path d="m5.7941176 2.147059v1.7647059h2.6470589v-1.7647059z" style="fill:#808080"/>
 <path d="m9.3235294 2.147059v1.7647059h2.6470586v-1.7647059z" style="fill:#808080"/>
 <path d="m12.852941 2.147059v1.7647059h2.647059v-1.7647059z" style="fill:#808080"/>
</svg>

<svg xmlns="http://www.w3.org/2000/svg" width="16" height="16" version="1.1">
 <path style="fill:#808080" d="M 2.2647059,12.735294 V 14.5 h 2.6470588 v -1.764706 z"/>
 <path d="M 5.7941176,12.735294 V 14.5 h 2.6470589 v -1.764706 z" style="fill:#808080"/>
 <path style="fill:#808080" d="M 9.3235294,12.735294 V 14.5 h 2.6470586 v -1.764706 z"/>
 <path d="M 12.852941,12.735294 V 14.5 H 15.5 v -1.764706 z" style="fill:#808080"/>
 <path d="m 0.5,10.088235 v 1.764706 h 2.6470588 v -1.764706 z" style="fill:#808080"/>
 <path style="fill:#808080" d="m 4.0294118,10.088235 v 1.764706 h 2.6470588 v -1.764706 z"/>
 <path d="m 7.5588235,10.088235 v 1.764706 h 2.6470585 v -1.764706 z" style="fill:#808080"/>
 <path style="fill:#808080" d="m 11.088235,10.088235 v 1.764706 h 2.647059 v -1.764706 z"/>
 <path d="M 2.2647059,7.4411767 V 9.2058826 H 4.9117647 V 7.4411767 Z" style="fill:#808080"/>
 <path style="fill:#808080" d="M 5.7941176,7.4411767 V 9.2058826 H 8.4411765 V 7.4411767 Z"/>
 <path d="M 9.3235294,7.4411767 V 9.2058826 H 11.970588 V 7.4411767 Z" style="fill:#808080"/>
 <path style="fill:#808080" d="M 12.852941,7.4411767 V 9.2058826 H 15.5 V 7.4411767 Z"/>
 <path style="fill:#808080" d="M 0.5,4.7941178 V 6.5588237 H 3.1470588 V 4.7941178 Z"/>
 <path d="M 4.0294118,4.7941178 V 6.5588237 H 6.6764706 V 4.7941178 Z" style="fill:#808080"/>
 <path style="fill:#808080" d="M 7.5588235,4.7941178 V 6.5588237 H 10.205882 V 4.7941178 Z"/>
 <path d="m 11.088235,4.7941178 v 1.7647059 h 2.647059 V 4.7941178 Z" style="fill:#808080"/>
 <path style="fill:#808080" d="M 2.2647059,2.147059 V 3.9117649 H 4.9117647 V 2.147059 Z"/>
 <path d="M 5.7941176,2.147059 V 3.9117649 H 8.4411765 V 2.147059 Z" style="fill:#808080"/>
 <path style="fill:#808080" d="M 9.3235294,2.147059 V 3.9117649 H 11.970588 V 2.147059 Z"/>
 <path d="M 12.852941,2.147059 V 3.9117649 H 15.5 V 2.147059 Z" style="fill:#808080"/>
</svg>
